src/resources/icon__advantages--2.svg

<svg width="74" height="74" viewBox="0 0 74 74" fill="none" xmlns="http://www.w3.org/2000/svg">
<path d="M36.8836 73.7673C16.5438 73.7673 0 57.2199 0 36.8836C0 16.5438 16.5438 0 36.8836 0C57.2235 0 73.7673 16.5438 73.7673 36.8836C73.7673 57.2199 57.2199 73.7673 36.8836 73.7673ZM36.8836 1.41249C17.3242 1.41249 1.41249 17.3242 1.41249 36.8836C1.41249 56.4431 17.3242 72.3548 36.8836 72.3548C56.4431 72.3548 72.3548 56.4431 72.3548 36.8836C72.3548 17.3242 56.4395 1.41249 36.8836 1.41249Z" fill="#45C8DA"/>
<path d="M45.0446 17.7303H38.9851C38.5966 17.7303 38.2788 17.4125 38.2788 17.024V14.6511C38.2788 14.2626 38.5966 13.9448 38.9851 13.9448H45.0446C45.4331 13.9448 45.7509 14.2626 45.7509 14.6511V17.024C45.7509 17.416 45.4331 17.7303 45.0446 17.7303ZM39.6913 16.3178H44.3384V15.3573H39.6913V16.3178Z" fill="black"/>
<path d="M42.0149 48.0459C37.3219 48.0459 32.9467 45.7223 30.3159 41.8274L31.4848 41.0364C33.8542 44.5429 37.788 46.6334 42.0113 46.6334C49.0102 46.6334 54.7061 40.9375 54.7061 33.9387C54.7061 27.42 49.6247 21.8654 43.1378 21.2969C42.7741 21.2651 42.4916 20.9579 42.4916 20.5942V18.2388H43.9041V19.9621C50.91 20.8943 56.1186 26.7915 56.1186 33.9387C56.1221 41.7179 49.7941 48.0459 42.0149 48.0459Z" fill="black"/>
<path d="M30.4675 28.6594L29.1821 28.0697C31.202 23.6627 35.3547 20.6011 40.1219 19.9585V18.2352H41.5344V20.5906C41.5344 20.9578 41.2554 21.2615 40.8881 21.2933C36.3611 21.6923 32.3638 24.5173 30.4675 28.6594Z" fill="black"/>
<path d="M51.7322 21.4624L50.1816 23.2911L51.2589 24.2046L52.8095 22.3758L51.7322 21.4624Z" fill="black"/>
<path d="M51.4696 20.3092L50.5562 21.3866L53.0801 23.5264L53.9935 22.4489L51.4696 20.3092Z" fill="black"/>
<path d="M42.0146 45.2385V43.826C47.4669 43.826 51.9056 39.3908 51.9056 33.9351H53.3181C53.3181 40.1677 48.2473 45.2385 42.0146 45.2385Z" fill="black"/>
<path d="M46.1517 25.9678L42.5039 31.8165L43.7024 32.564L47.3501 26.7153L46.1517 25.9678Z" fill="black"/>
<path d="M40.3297 35.3091L38.8232 37.7241L40.0217 38.4717L41.5282 36.0567L40.3297 35.3091Z" fill="black"/>
<path d="M42.0145 36.7036C40.489 36.7036 39.2495 35.4641 39.2495 33.9387C39.2495 32.4132 40.489 31.1737 42.0145 31.1737C43.5399 31.1737 44.7794 32.4132 44.7794 33.9387C44.7794 35.4606 43.5399 36.7036 42.0145 36.7036ZM42.0145 32.5827C41.2694 32.5827 40.662 33.19 40.662 33.9351C40.662 34.6802 41.2694 35.2876 42.0145 35.2876C42.7595 35.2876 43.3669 34.6802 43.3669 33.9351C43.3669 33.19 42.7595 32.5827 42.0145 32.5827Z" fill="black"/>
<path d="M31.5374 48.6603L30.1497 48.406C31.5162 40.9234 28.5076 36.4776 28.4794 36.4352C28.3169 36.1986 28.3099 35.8843 28.4688 35.6442C29.5176 34.041 29.4469 27.4235 28.6418 26.7067C28.1686 26.3641 27.473 26.29 26.9151 26.5195C26.6008 26.6502 26.2088 26.9362 26.1135 27.5506C25.9757 28.4334 25.5555 29.687 25.0682 31.1384C24.5315 32.738 23.9206 34.5495 23.6345 36.0927C23.1049 38.9353 23.1649 41.6896 23.1649 41.7179C23.1684 41.898 23.1049 42.071 22.9848 42.2052L20.2481 45.2668L19.1958 44.3275L21.7489 41.4707C21.7453 40.6727 21.7842 38.3173 22.2432 35.8384C22.5469 34.1999 23.1755 32.3354 23.7264 30.6934C24.1748 29.3621 24.595 28.105 24.7116 27.3423C24.8599 26.3712 25.4637 25.6014 26.3607 25.2236C27.367 24.8033 28.5853 24.9375 29.4611 25.5696C31.1137 26.7632 30.8947 33.6102 29.8601 36.0008C30.6158 37.2721 32.7981 41.7391 31.5374 48.6603Z" fill="black"/>
<path d="M30.1601 55.299L29.1431 54.3208L31.788 51.5735L32.1623 51.6441C32.187 51.6477 34.899 52.1315 37.2119 50.9732C39.6202 49.7691 40.8526 48.8863 41.3364 47.1136L42.6994 47.4844C42.0815 49.7479 40.5171 50.8991 37.844 52.2339C35.6335 53.3391 33.2181 53.1979 32.2894 53.0849L30.1601 55.299Z" fill="black"/>
<path d="M28.518 59.6142L27.5187 58.6148L30.0294 56.1006L18.5141 44.5853L15.9998 47.096L15.0005 46.0966L18.0126 43.0845C18.2881 42.8091 18.7365 42.8091 19.012 43.0845L31.5266 55.5992C31.802 55.8746 31.802 56.3231 31.5266 56.5985L28.518 59.6142Z" fill="black"/>
<path d="M25.2771 52.8701L24.2783 53.8689L26.8626 56.4532L27.8614 55.4545L25.2771 52.8701Z" fill="black"/>
</svg>

<svg width="74" height="74" fill="none" xmlns="http://www.w3.org/2000/svg"><path d="M36.884 73.767C16.544 73.767 0 57.22 0 36.884 0 16.544 16.544 0 36.884 0s36.883 16.544 36.883 36.884c0 20.336-16.547 36.883-36.883 36.883zm0-72.355c-19.56 0-35.472 15.912-35.472 35.472 0 19.56 15.912 35.47 35.472 35.47 19.56 0 35.47-15.91 35.47-35.47S56.44 1.412 36.885 1.412z" fill="#45C8DA"/><path d="M45.045 17.73h-6.06a.708.708 0 0 1-.706-.706v-2.373c0-.388.318-.706.706-.706h6.06c.388 0 .706.318.706.706v2.373a.706.706 0 0 1-.706.706zm-5.354-1.412h4.647v-.96h-4.647v.96zM42.015 48.046a14.103 14.103 0 0 1-11.7-6.219l1.17-.79a12.688 12.688 0 0 0 10.526 5.596c7 0 12.695-5.696 12.695-12.694 0-6.519-5.081-12.074-11.568-12.642a.71.71 0 0 1-.646-.703V18.24h1.412v1.723c7.006.932 12.215 6.83 12.215 13.977.003 7.779-6.325 14.107-14.104 14.107z" fill="#000"/><path d="m30.468 28.66-1.286-.59a14.14 14.14 0 0 1 10.94-8.111v-1.724h1.412v2.356c0 .367-.279.67-.646.702a12.723 12.723 0 0 0-10.42 7.366zM51.732 21.462l-1.55 1.83 1.077.913 1.55-1.83-1.077-.913z" fill="#000"/><path d="m51.47 20.31-.914 1.077 2.524 2.14.913-1.078-2.523-2.14zM42.015 45.239v-1.413c5.452 0 9.89-4.435 9.89-9.89h1.413c0 6.232-5.07 11.303-11.303 11.303zM46.152 25.968l-3.648 5.849 1.198.747 3.648-5.849-1.198-.747zM40.33 35.31l-1.507 2.414 1.199.748 1.506-2.415-1.198-.748z" fill="#000"/><path d="M42.014 36.704a2.767 2.767 0 0 1-2.765-2.765 2.767 2.767 0 0 1 2.765-2.765 2.767 2.767 0 0 1 2.765 2.765 2.77 2.77 0 0 1-2.765 2.765zm0-4.121c-.745 0-1.352.607-1.352 1.352 0 .745.607 1.353 1.352 1.353.745 0 1.353-.608 1.353-1.353s-.607-1.352-1.352-1.352zM31.537 48.66l-1.387-.254c1.366-7.483-1.642-11.928-1.67-11.97a.71.71 0 0 1-.011-.792c1.049-1.603.978-8.22.173-8.937-.473-.343-1.169-.417-1.727-.188-.314.131-.706.417-.802 1.032-.137.882-.558 2.136-1.045 3.587-.537 1.6-1.147 3.412-1.434 4.955-.53 2.842-.47 5.597-.47 5.625a.707.707 0 0 1-.18.487l-2.736 3.062-1.052-.94 2.553-2.856c-.004-.798.035-3.154.494-5.633.304-1.638.933-3.503 1.483-5.145.449-1.33.869-2.588.986-3.35a2.694 2.694 0 0 1 1.649-2.12c1.006-.42 2.224-.285 3.1.347 1.653 1.193 1.434 8.04.4 10.43.755 1.272 2.937 5.74 1.676 12.66zM30.16 55.299l-1.017-.978 2.645-2.747.374.07c.025.004 2.737.488 5.05-.67 2.408-1.205 3.64-2.088 4.124-3.86l1.363.37c-.617 2.264-2.182 3.415-4.855 4.75-2.21 1.105-4.626.964-5.555.85L30.16 55.3z" fill="#000"/><path d="m28.518 59.614-1-1 2.511-2.513-11.515-11.516L16 47.096l-1-1 3.013-3.011a.708.708 0 0 1 .999 0l12.515 12.514a.708.708 0 0 1 0 1l-3.009 3.015z" fill="#000"/><path d="m25.277 52.87-.999.999 2.585 2.584.998-.998-2.584-2.585z" fill="#000"/></svg>
